kora-light-panel/panel/16/mynotes-tray.svg

<svg xmlns="http://www.w3.org/2000/svg" width="16" height="16" version="1.1">
 <defs>
  <style id="current-color-scheme" type="text/css">
   .ColorScheme-Text { color:#444444; } .ColorScheme-Highlight { color:#4285f4; }
  </style>
 </defs>
 <path style="fill:currentColor" class="ColorScheme-Text" d="M 2 1 C 2 1 1 0.99996254 1 2 L 1 14 C 1 15.000125 2 15 2 15 L 9 15 L 9 10.75 C 9 9.7952572 9.7952572 9 10.75 9 L 15 9 L 15 2 C 15 0.99996254 14 1 14 1 L 2 1 z"/>
 <path d="m 15,10.000022 h -4.25 c -0.414167,0 -0.75,0.335833 -0.75,0.75 v 4.25 z" style="opacity:0.3;fill:currentColor" class="ColorScheme-Text"/>
</svg>

<svg xmlns="http://www.w3.org/2000/svg" width="16" height="16" viewBox="0 0 16 16">
 <defs>
  <style id="current-color-scheme" type="text/css">
   .ColorScheme-Text { color:#444444; } .ColorScheme-Highlight { color:#4285f4; } .ColorScheme-NeutralText { color:#ff9800; } .ColorScheme-PositiveText { color:#4caf50; } .ColorScheme-NegativeText { color:#f44336; }
  </style>
 </defs> 
 <path style="opacity:0.3;fill:currentColor" class="ColorScheme-Text" d="m2 1s-1 0-1 1v12c0 1 1 1 1 1h7v-4.25c0-.955.795-1.75 1.75-1.75h4.25v-7c0-1-1-1-1-1z"/>
 <path style="fill:currentColor" class="ColorScheme-Text" d="m15 10h-4.25c-.414 0-.75.336-.75.75v4.25z"/>
</svg>
